la/calculator-solid.svg

<svg xmlns="http://www.w3.org/2000/svg" viewBox="0 0 32 32" height="1em" width="1em">
  <path d="M6 3v26h20V3Zm2 2h16v22H8Zm2 2v6h12V7Zm2 2h8v2h-8Zm-1 6v2h2v-2Zm4 0v2h2v-2Zm4 0v2h2v-2Zm-8 4v2h2v-2Zm4 0v2h2v-2Zm4 0v2h2v-2Zm-8 4v2h2v-2Zm4 0v2h2v-2Zm4 0v2h2v-2Z"/>
</svg>

<svg xmlns="http://www.w3.org/2000/svg" viewBox="0 0 32 32" height="1em" width="1em">
  <path d="M 6 3 L 6 29 L 26 29 L 26 3 Z M 8 5 L 24 5 L 24 27 L 8 27 Z M 10 7 L 10 13 L 22 13 L 22 7 Z M 12 9 L 20 9 L 20 11 L 12 11 Z M 11 15 L 11 17 L 13 17 L 13 15 Z M 15 15 L 15 17 L 17 17 L 17 15 Z M 19 15 L 19 17 L 21 17 L 21 15 Z M 11 19 L 11 21 L 13 21 L 13 19 Z M 15 19 L 15 21 L 17 21 L 17 19 Z M 19 19 L 19 21 L 21 21 L 21 19 Z M 11 23 L 11 25 L 13 25 L 13 23 Z M 15 23 L 15 25 L 17 25 L 17 23 Z M 19 23 L 19 25 L 21 25 L 21 23 Z"/>
</svg>
